offer/images/number1.svg

<svg height="66" viewBox="0 0 66 66" width="66" xmlns="http://www.w3.org/2000/svg"><g fill="none" fill-rule="evenodd"><path d="m33.000635 66c18.2255005 0 32.999365-14.7738646 32.999365-32.9993655 0-8.0584713-2.8892693-15.4415954-7.6877921-21.171895l2.4830451-7.73476176h-11.8668231c-4.7223557-2.60872083-10.1517954-4.09397774-15.9277949-4.09397774-18.2255008 0-33.000635 14.775134-33.000635 33.0006345 0 18.2242315 14.7751342 32.9993655 33.000635 32.9993655z" fill="#ffec97"/><path d="m66 33.0025391c0 18.0984534-14.2915402 32.7968606-32 32.9974609v-66c5.528835.06348091 10.7214568 1.5400507 15.2553504 4.09072038h11.6379487l-2.4331856 7.73580322c4.705736 5.731071 7.5398865 13.116459 7.5398865 21.1760155z" fill="#ffdb2d"/><path d="m45 40.4346049v7.5653951h-21.9816775v-7.5653951h7.2246519v-13.3979836c-.3052497.4210793-.7798077.8498148-1.4249099 1.2874824-.6438665.4389434-1.3655902.8408827-2.1614636 1.2083703-.7983452.3674875-1.6127561.6660713-2.4432327.8931992-.8317124.2284035-1.5695018.3419673-2.2133682.3419673v-7.7759345c.5425284 0 1.2469506-.1926759 2.1120304-.5780272.8650798-.3853517 1.7215087-.8485389 2.5692871-1.3921144.847778-.5422993 1.6102843-1.0935306 2.2899897-1.65497.6784696-.5601634 1.1011231-1.0156947 1.2716672-1.3665944h8.2948793v22.4333289h6.4621463z" fill="#57555c"/><path d="m38.7027589 40.4346051v-22.4346051h-4.7027589v30h11v-7.5653949z" fill="#171719"/></g></svg>

<?xml version="1.0" encoding="UTF-8"?>
<svg width="66px" height="66px" viewBox="0 0 66 66" version="1.1" xmlns="http://www.w3.org/2000/svg" xmlns:xlink="http://www.w3.org/1999/xlink">
    <!-- Generator: Sketch 52.2 (67145) - http://www.bohemiancoding.com/sketch -->
    <title>countdown</title>
    <desc>Created with Sketch.</desc>
    <g id="Page-1" stroke="none" stroke-width="1" fill="none" fill-rule="evenodd">
        <g id="offer" transform="translate(-150.000000, -7137.000000)">
            <g id="countdown" transform="translate(150.000000, 7137.000000)">
                <path d="M33.000635,66 C51.2261355,66 66,51.2261354 66,33.0006345 C66,24.9421632 63.1107307,17.5590391 58.3122079,11.8287395 L60.795253,4.09397774 L48.9284299,4.09397774 C44.2060742,1.48525691 38.7766345,0 33.000635,0 C14.7751342,0 0,14.775134 0,33.0006345 C0,51.224866 14.7751342,66 33.000635,66 Z" id="Path" fill="#FFEC97"></path>
                <path d="M66,33.0025391 C66,51.1009925 51.7084598,65.7993997 34,66 L34,0 C39.528835,0.0634809086 44.7214568,1.5400507 49.2553504,4.09072038 L60.8932991,4.09072038 L58.4601135,11.8265236 C63.1658495,17.5575946 66,24.9429826 66,33.0025391 Z" id="Path" fill="#FFDB2D"></path>
                <path d="M45,40.4346049 L45,48 L23.0183225,48 L23.0183225,40.4346049 L30.2429744,40.4346049 L30.2429744,27.0366213 C29.9377247,27.4577006 29.4631667,27.8864361 28.8180645,28.3241037 C28.174198,28.7630471 27.4524743,29.1649864 26.6566009,29.532474 C25.8582557,29.8999615 25.0438448,30.1985453 24.2133682,30.4256732 C23.3816558,30.6540767 22.6438664,30.7676405 22,30.7676405 L22,22.991706 C22.5425284,22.991706 23.2469506,22.7990301 24.1120304,22.4136788 C24.9771102,22.0283271 25.8335391,21.5651399 26.6813175,21.0215644 C27.5290955,20.4792651 28.2916018,19.9280338 28.9713072,19.3665944 C29.6497768,18.806431 30.0724303,18.3508997 30.2429744,18 L38.5378537,18 L38.5378537,40.4333289 L45,40.4333289 L45,40.4346049 Z" id="Path" fill="#57555C"></path>
                <polygon id="Path" fill="#171719" points="38.7027589 40.4346051 38.7027589 18 34 18 34 48 45 48 45 40.4346051"></polygon>
            </g>
        </g>
    </g>
</svg>
